X:1
T:Spirvins' Fancy
R:reel
B:Ryan's Mammoth Collection
Z:Contributed by Ray Davies,  ray:davies99.freeserve.co.uk
M:2/4
L:1/16
K:Gm
udc"^Segno"|]BGFD D2CC|DGG^F GABc|dBcA BGFA|CGG^F GAdc|
BGFD D2CC|DGG^F GABc|dBcA BGFA|DGG^F G2H|]
B2df bdfd|B2df gdfd|B2df bdfd|c=Bcd _BGG2|
B2df bdfd|B2df fdfd|bdbd fdfd|c=Bcd _BGGB"^Segno"|]
